storage/app/public/img/icones/hepato.svg

<?xml version="1.0" encoding="UTF-8" standalone="no"?>
<svg
   width="1200pt"
   height="1200pt"
   version="1.1"
   viewBox="0 0 1200 1200"
   id="svg58"
   sodipodi:docname="hepato.svg"
   inkscape:version="1.1.2 (0a00cf5339, 2022-02-04)"
   xmlns:inkscape="http://www.inkscape.org/namespaces/inkscape"
   xmlns:sodipodi="http://sodipodi.sourceforge.net/DTD/sodipodi-0.dtd"
   xmlns="http://www.w3.org/2000/svg"
   xmlns:svg="http://www.w3.org/2000/svg">
  <defs
     id="defs62" />
  <sodipodi:namedview
     id="namedview60"
     pagecolor="#ffffff"
     bordercolor="#666666"
     borderopacity="1.0"
     inkscape:pageshadow="2"
     inkscape:pageopacity="0.0"
     inkscape:pagecheckerboard="0"
     inkscape:document-units="pt"
     showgrid="false"
     inkscape:zoom="0.5275"
     inkscape:cx="800.94787"
     inkscape:cy="800"
     inkscape:window-width="1920"
     inkscape:window-height="1043"
     inkscape:window-x="1920"
     inkscape:window-y="0"
     inkscape:window-maximized="1"
     inkscape:current-layer="svg58" />
  <g
     id="g56">
    <path
       d="m77.293 1039.3c95.227 11.516 123.25-111.46 275.75-161.39 97.148-31.488 260.17-2.1602 328.65-110.08 64.992-101.97-23.074-229.44 82.406-414.12 10.285-18.121 29.387-51.797 10.773-78.488-17.188-24.73-151.29-106.04-318.86-106.04-79.836 0-158.7 17.387-228.98 50.816-1.2695 0.98828-64.809 34.383-102.37 104.45-30 55.84-53.387 120.37-69.797 191.51-21.305 92.938-49.469 329.14-40.777 407.39 4.9062 43.711 12.254 109.71 63.191 115.96z"
       id="path2" />
    <path
       d="m792.27 257.58c0.98047 1.2227 1.8359 2.4492 2.6953 3.6719 27.43 39.305 1.4688 84.977-9.5508 104.57-103.08 180.39-11.25 302.58-83.02 415.1-1.4688 2.3242-2.9375 4.5312-4.5312 6.7344 1.7148 0.85547 3.4297 1.7148 5.1445 2.5703 13.348 6.3672 28.777 9.6719 45.551 9.6719 71.879 0 156.49-58.406 196.78-114.86 39.223-54.695 62.012-132.79 122.2-164.08 10.777-5.6328 22.652-9.6719 35.145-14.082 26.203-8.9414 53.387-18.367 70.652-42.367 27.672-38.324 11.512-92.082-19.961-121.96-62.926-59.457-278.93-80.539-361.11-84.969z"
       id="path4" />
    <path
       d="m1146.2 291.62 12.473-21.082c-33.586-19.867-71.086-30.098-103.32-37.48-20.617-4.7344-41.598-9.1016-62.367-12.969l-4.4844 24.07c20.434 3.8086 41.082 8.1016 61.375 12.766 30.41 6.9648 65.637 16.539 96.328 34.695z"
       id="path6" />
    <path
       d="m905.48 231.07c15.098 1.9492 30.156 4.1328 45.176 6.543l3.875-24.18c-15.258-2.4453-30.57-4.6641-45.918-6.6484z"
       id="path8" />
    <path
       d="m1021.4 1061.6h-23.145v24.488h23.145v23.148h24.488v-23.148h23.152v-24.488h-23.152v-23.145h-24.488z"
       id="path10" />
    <path
       d="m492.05 1135.5v-23.152h23.145v-24.488h-23.145v-23.145h-24.488v23.145h-23.152v24.488h23.152v23.152z"
       id="path12" />
    <path
       d="m758.25 890.78v23.148h-23.145v24.492h23.145v23.148h24.488v-23.148h23.152v-24.492h-23.152v-23.148z"
       id="path14" />
    <path
       d="m148.44 135.29v-23.145h23.148v-24.488h-23.148v-23.152h-24.488v23.152h-23.152v24.488h23.152v23.145z"
       id="path16" />
    <path
       d="m874.5 157.65v-23.152h23.148v-24.488h-23.148v-23.145h-24.488v23.145h-23.152v24.488h23.152v23.152z"
       id="path18" />
    <path
       d="m1092.7 759.06h24.488v24.488h-24.488z"
       id="path20" />
    <path
       d="m1043.7 759.06h24.488v24.488h-24.488z"
       id="path22" />
    <path
       d="m994.72 759.06h24.488v24.488h-24.488z"
       id="path24" />
    <path
       d="m1065.3 87.652h24.488v24.488h-24.488z"
       id="path26" />
    <path
       d="m1016.3 87.652h24.488v24.488h-24.488z"
       id="path28" />
    <path
       d="m967.34 87.652h24.488v24.488h-24.488z"
       id="path30" />
    <path
       d="m522.81 87.652h24.488v24.488h-24.488z"
       id="path32" />
    <path
       d="m473.83 87.652h24.488v24.488h-24.488z"
       id="path34" />
    <path
       d="m571.79 87.652h24.488v24.488h-24.488z"
       id="path36" />
    <path
       d="m852.07 1097h24.488v24.488h-24.488z"
       id="path38" />
    <path
       d="m754.12 1097h24.488v24.488h-24.488z"
       id="path40" />
    <path
       d="m803.09 1097h24.488v24.488h-24.488z"
       id="path42" />
    <path
       d="m487.3 936.79h24.488v24.488h-24.488z"
       id="path44" />
    <path
       d="m536.28 936.79h24.488v24.488h-24.488z"
       id="path46" />
    <path
       d="m438.32 936.79h24.488v24.488h-24.488z"
       id="path48" />
    <path
       d="m196.11 1107.6h24.488v24.488h-24.488z"
       id="path50" />
    <path
       d="m245.09 1107.6h24.488v24.488h-24.488z"
       id="path52" />
    <path
       d="m147.13 1107.6h24.488v24.488h-24.488z"
       id="path54" />
  </g>
</svg>

<?xml version="1.0" encoding="UTF-8" standalone="no"?>
<svg
   width="1200pt"
   height="1200pt"
   version="1.1"
   viewBox="0 0 1200 1200"
   id="svg58"
   sodipodi:docname="hepato.svg"
   inkscape:version="1.1.2 (0a00cf5339, 2022-02-04)"
   xmlns:inkscape="http://www.inkscape.org/namespaces/inkscape"
   xmlns:sodipodi="http://sodipodi.sourceforge.net/DTD/sodipodi-0.dtd"
   xmlns="http://www.w3.org/2000/svg"
   xmlns:svg="http://www.w3.org/2000/svg">
  <defs
     id="defs62" />
  <sodipodi:namedview
     id="namedview60"
     pagecolor="#ffffff"
     bordercolor="#666666"
     borderopacity="1.0"
     inkscape:pageshadow="2"
     inkscape:pageopacity="0.0"
     inkscape:pagecheckerboard="0"
     inkscape:document-units="pt"
     showgrid="false"
     inkscape:zoom="0.5275"
     inkscape:cx="800.94787"
     inkscape:cy="800.94787"
     inkscape:window-width="1920"
     inkscape:window-height="1016"
     inkscape:window-x="0"
     inkscape:window-y="27"
     inkscape:window-maximized="1"
     inkscape:current-layer="svg58" />
  <g
     id="g56"
     style="fill:#800000">
    <path
       d="m 77.293,1039.3 c 95.227,11.516 123.25,-111.46 275.75,-161.39 97.148,-31.488 260.17,-2.1602 328.65,-110.08 64.992,-101.97 -23.074,-229.44 82.406,-414.12 10.285,-18.121 29.387,-51.797 10.773,-78.488 -17.188,-24.73 -151.29,-106.04 -318.86,-106.04 -79.836,0 -158.7,17.387 -228.98,50.816 -1.2695,0.98828 -64.809,34.383 -102.37,104.45 -30,55.84 -53.387,120.37 -69.797,191.51 -21.305,92.938 -49.469,329.14 -40.777,407.39 4.9062,43.711 12.254,109.71 63.191,115.96 z"
       id="path2"
       style="fill:#800000" />
    <path
       d="m 792.27,257.58 c 0.98047,1.2227 1.8359,2.4492 2.6953,3.6719 27.43,39.305 1.4688,84.977 -9.5508,104.57 -103.08,180.39 -11.25,302.58 -83.02,415.1 -1.4688,2.3242 -2.9375,4.5312 -4.5312,6.7344 1.7148,0.85547 3.4297,1.7148 5.1445,2.5703 13.348,6.3672 28.777,9.6719 45.551,9.6719 71.879,0 156.49,-58.406 196.78,-114.86 39.223,-54.695 62.012,-132.79 122.2,-164.08 10.777,-5.6328 22.652,-9.6719 35.145,-14.082 26.203,-8.9414 53.387,-18.367 70.652,-42.367 27.672,-38.324 11.512,-92.082 -19.961,-121.96 -62.926,-59.457 -278.93,-80.539 -361.11,-84.969 z"
       id="path4"
       style="fill:#800000" />
    <path
       d="m 1146.2,291.62 12.473,-21.082 c -33.586,-19.867 -71.086,-30.098 -103.32,-37.48 -20.617,-4.7344 -41.598,-9.1016 -62.367,-12.969 l -4.4844,24.07 c 20.434,3.8086 41.082,8.1016 61.375,12.766 30.41,6.9648 65.637,16.539 96.328,34.695 z"
       id="path6"
       style="fill:#800000" />
    <path
       d="m 905.48,231.07 c 15.098,1.9492 30.156,4.1328 45.176,6.543 l 3.875,-24.18 c -15.258,-2.4453 -30.57,-4.6641 -45.918,-6.6484 z"
       id="path8"
       style="fill:#800000" />
    <path
       d="m 1021.4,1061.6 h -23.145 v 24.488 h 23.145 v 23.148 h 24.488 v -23.148 h 23.152 V 1061.6 h -23.152 v -23.145 H 1021.4 Z"
       id="path10"
       style="fill:#800000" />
    <path
       d="m 492.05,1135.5 v -23.152 h 23.145 V 1087.86 H 492.05 v -23.145 h -24.488 v 23.145 H 444.41 v 24.488 h 23.152 v 23.152 z"
       id="path12"
       style="fill:#800000" />
    <path
       d="m 758.25,890.78 v 23.148 h -23.145 v 24.492 h 23.145 v 23.148 h 24.488 V 938.42 H 805.89 V 913.928 H 782.738 V 890.78 Z"
       id="path14"
       style="fill:#800000" />
    <path
       d="m 148.44,135.29 v -23.145 h 23.148 V 87.657 H 148.44 V 64.505 H 123.952 V 87.657 H 100.8 v 24.488 h 23.152 v 23.145 z"
       id="path16"
       style="fill:#800000" />
    <path
       d="m 874.5,157.65 v -23.152 h 23.148 V 110.01 H 874.5 V 86.865 H 850.012 V 110.01 H 826.86 v 24.488 h 23.152 v 23.152 z"
       id="path18"
       style="fill:#800000" />
    <path
       d="m 1092.7,759.06 h 24.488 v 24.488 H 1092.7 Z"
       id="path20"
       style="fill:#800000" />
    <path
       d="m 1043.7,759.06 h 24.488 v 24.488 H 1043.7 Z"
       id="path22"
       style="fill:#800000" />
    <path
       d="m 994.72,759.06 h 24.488 v 24.488 H 994.72 Z"
       id="path24"
       style="fill:#800000" />
    <path
       d="m 1065.3,87.652 h 24.488 V 112.14 H 1065.3 Z"
       id="path26"
       style="fill:#800000" />
    <path
       d="m 1016.3,87.652 h 24.488 V 112.14 H 1016.3 Z"
       id="path28"
       style="fill:#800000" />
    <path
       d="m 967.34,87.652 h 24.488 V 112.14 H 967.34 Z"
       id="path30"
       style="fill:#800000" />
    <path
       d="m 522.81,87.652 h 24.488 V 112.14 H 522.81 Z"
       id="path32"
       style="fill:#800000" />
    <path
       d="m 473.83,87.652 h 24.488 V 112.14 H 473.83 Z"
       id="path34"
       style="fill:#800000" />
    <path
       d="m 571.79,87.652 h 24.488 V 112.14 H 571.79 Z"
       id="path36"
       style="fill:#800000" />
    <path
       d="m 852.07,1097 h 24.488 v 24.488 H 852.07 Z"
       id="path38"
       style="fill:#800000" />
    <path
       d="m 754.12,1097 h 24.488 v 24.488 H 754.12 Z"
       id="path40"
       style="fill:#800000" />
    <path
       d="m 803.09,1097 h 24.488 v 24.488 H 803.09 Z"
       id="path42"
       style="fill:#800000" />
    <path
       d="m 487.3,936.79 h 24.488 v 24.488 H 487.3 Z"
       id="path44"
       style="fill:#800000" />
    <path
       d="m 536.28,936.79 h 24.488 v 24.488 H 536.28 Z"
       id="path46"
       style="fill:#800000" />
    <path
       d="m 438.32,936.79 h 24.488 v 24.488 H 438.32 Z"
       id="path48"
       style="fill:#800000" />
    <path
       d="m 196.11,1107.6 h 24.488 v 24.488 H 196.11 Z"
       id="path50"
       style="fill:#800000" />
    <path
       d="m 245.09,1107.6 h 24.488 v 24.488 H 245.09 Z"
       id="path52"
       style="fill:#800000" />
    <path
       d="m 147.13,1107.6 h 24.488 v 24.488 H 147.13 Z"
       id="path54"
       style="fill:#800000" />
  </g>
</svg>
